flaticon/interaction/map-8.svg

<svg xmlns="http://www.w3.org/2000/svg" width="32" height="32" viewBox="0 0 24 24">
    <path d="M 22.316406 18.035156 C 22.132812 16.304688 20.695312 14.945312 18.964844 14.945312 C 17.886719 14.945312 16.867188 15.488281 16.238281 16.378906 C 16.117188 16.359375 15.992188 16.347656 15.867188 16.347656 C 14.890625 16.347656 14.023438 17.011719 13.734375 17.953125 C 12.929688 18.429688 12.421875 19.316406 12.421875 20.269531 C 12.421875 21.746094 13.59375 22.945312 15.035156 22.945312 L 19.570312 22.945312 C 19.597656 22.945312 19.625 22.945312 19.644531 22.941406 C 19.671875 22.945312 19.695312 22.945312 19.722656 22.945312 L 21.539062 22.945312 C 22.894531 22.945312 24 21.816406 24 20.425781 C 24 19.332031 23.308594 18.375 22.316406 18.035156 Z M 21.539062 22.105469 L 19.707031 22.101562 L 19.625 22.101562 L 15.035156 22.105469 C 14.058594 22.105469 13.261719 21.28125 13.261719 20.269531 C 13.261719 19.566406 13.664062 18.917969 14.28125 18.613281 L 14.464844 18.523438 L 14.507812 18.324219 C 14.644531 17.664062 15.21875 17.1875 15.867188 17.1875 C 16.011719 17.1875 16.15625 17.214844 16.296875 17.261719 L 16.621094 17.371094 L 16.796875 17.070312 C 17.257812 16.269531 18.066406 15.789062 18.964844 15.789062 C 20.339844 15.789062 21.472656 16.945312 21.492188 18.367188 L 21.496094 18.710938 L 21.832031 18.773438 C 22.601562 18.925781 23.15625 19.617188 23.15625 20.425781 C 23.15625 21.351562 22.429688 22.105469 21.539062 22.105469 Z M 21.539062 22.105469"/>
    <path d="M 11.113281 20.453125 L 8.421875 19.300781 L 8.421875 2.171875 L 14.738281 5.515625 L 14.738281 12.839844 C 14.738281 13.074219 14.925781 13.261719 15.15625 13.261719 C 15.390625 13.261719 15.578125 13.074219 15.578125 12.839844 L 15.578125 5.542969 L 21.894531 2.941406 L 21.894531 14.105469 C 21.894531 14.335938 22.082031 14.523438 22.316406 14.523438 C 22.546875 14.523438 22.738281 14.335938 22.738281 14.105469 L 22.738281 2.316406 C 22.738281 2.175781 22.667969 2.042969 22.550781 1.964844 C 22.433594 1.886719 22.285156 1.871094 22.15625 1.925781 L 15.179688 4.796875 L 8.195312 1.101562 C 8.191406 1.097656 8.183594 1.097656 8.179688 1.09375 C 8.160156 1.085938 8.140625 1.078125 8.117188 1.070312 C 8.105469 1.066406 8.09375 1.0625 8.082031 1.0625 C 8.058594 1.054688 8.035156 1.054688 8.015625 1.054688 C 8.003906 1.054688 7.992188 1.050781 7.980469 1.050781 C 7.957031 1.054688 7.9375 1.058594 7.917969 1.0625 C 7.902344 1.066406 7.886719 1.066406 7.875 1.070312 C 7.871094 1.070312 7.867188 1.070312 7.867188 1.074219 L 0.289062 3.597656 C 0.117188 3.65625 0 3.816406 0 4 L 0 22.105469 C 0 22.238281 0.0664062 22.367188 0.175781 22.445312 C 0.246094 22.5 0.332031 22.527344 0.421875 22.527344 C 0.464844 22.527344 0.511719 22.519531 0.554688 22.503906 L 7.980469 20.027344 L 10.78125 21.226562 C 10.835938 21.25 10.890625 21.261719 10.949219 21.261719 C 11.109375 21.261719 11.265625 21.167969 11.335938 21.007812 C 11.425781 20.792969 11.328125 20.546875 11.113281 20.453125 Z M 0.84375 4.304688 L 7.578125 2.058594 L 7.578125 19.273438 L 0.84375 21.519531 Z M 0.84375 4.304688"/>
</svg>

<svg xmlns="http://www.w3.org/2000/svg" width="32" height="32" viewBox="0 0 24 24">
    <path d="M22.316 18.035c-.183-1.73-1.62-3.09-3.351-3.09a3.358 3.358 0 0 0-2.727 1.434 2.34 2.34 0 0 0-.37-.031c-.977 0-1.845.664-2.134 1.605a2.702 2.702 0 0 0-1.312 2.317c0 1.476 1.172 2.675 2.613 2.675h4.535c.028 0 .055 0 .075-.004.027.004.05.004.078.004h1.816c1.356 0 2.461-1.129 2.461-2.52 0-1.093-.691-2.05-1.684-2.39zm-.777 4.07l-1.832-.003h-.082l-4.59.003c-.976 0-1.773-.824-1.773-1.835 0-.704.402-1.352 1.02-1.657l.183-.09.043-.199c.137-.66.71-1.137 1.36-1.137.144 0 .288.028.429.075l.324.11.176-.302c.46-.8 1.27-1.28 2.168-1.28 1.375 0 2.508 1.155 2.527 2.577l.004.344.336.062c.77.153 1.324.844 1.324 1.653 0 .926-.726 1.68-1.617 1.68zm0 0"/>
    <path d="M11.113 20.453l-2.691-1.152V2.17l6.316 3.345v7.324a.42.42 0 1 0 .84 0V5.543l6.317-2.602v11.164a.422.422 0 0 0 .844 0V2.316a.423.423 0 0 0-.583-.39l-6.976 2.87-6.985-3.694c-.004-.004-.011-.004-.015-.008l-.063-.024c-.012-.004-.023-.008-.035-.008-.023-.007-.047-.007-.066-.007-.012 0-.024-.004-.036-.004l-.062.012c-.016.003-.031.003-.043.007-.004 0-.008 0-.008.004L.29 3.598A.425.425 0 0 0 0 4v18.105c0 .133.066.262.176.34a.397.397 0 0 0 .379.059l7.425-2.477 2.801 1.2a.424.424 0 0 0 .555-.219.425.425 0 0 0-.223-.555zM.843 4.305l6.735-2.246v17.214L.844 21.52zm0 0"/>
</svg>
